X:1
T:Title
%%score { ( 1 4 ) | ( 2 3 ) }
L:1/8
M:4/4
K:Bb
V:1 treble nm="Grand Piano"
V:4 treble 
V:2 bass 
V:3 bass 
V:1
 z4 z2[Q:1/4=100] F2 | [DB]2 [DB]2 [DB]2 [DB]2 | B2 A2 A2 G2 | F2 G2 F2 A2 |[M:3/4] [_DG]4 F2 | %5
[M:1/4] F2 |[M:4/4] [DB]2 [DB]2 [DB]2 [DB]2 | B2 A2 A2 c2 | cd [=Ec]2 dcBG | z4 G2 A2 | %10
 B2 B>B B2 DE | FGAF B2 B2 | z4 [Ge]2 e2 |[M:3/4] d6 |[M:1/4] d2 |[M:4/4] f2 d2 c2 B2 | %16
 [Gf]2 [Ge]2 [Gd]2 [Gc]2 | B3 B A2 A2 | [DB]6 z2 |] %19
V:2
 z4 z2 F,2 | [B,,B,]2 [B,,B,]2 [B,,B,]2 [B,,B,]2 | [F,CE]2 [F,CE]2 [F,CE]2 [F,B,E]2 | %3
 [F,A,E]2 [F,B,E]2 [F,A,E]2 [F,E]2 |[M:3/4] =E,4 [F,D]2 |[M:1/4] F,2 | %6
[M:4/4] [B,,B,]2 [B,,B,]2 [B,,B,]2 [B,,B,]2 | [F,DF]2 [F,CF]2 [F,CF]2 [F,A,F]2 | %8
 [C,B,]2 [C,B,]2 [C,B,]2 G,B, | z4 G,2 A,2 | B,2 B,>B, B,2 D,E, | F,G,A,F, B,2 B,2 | %12
 [E,B,]3 [E,B,] .[E,B,]2[K:treble] .[G,B,G]2 |[M:3/4] [B,F]6 |[M:1/4] [B,F]2 | %15
[M:4/4] [B,DF]2 [B,DF]2 [B,D_A]2 [B,DA]2 | [E,B,]2 [C,C]2 [D,B,]2 [E,C]2 | %17
 [F,DF]3 [F,DF] [F,CE]2 [F,CE]2 | [B,,B,]6 z2 |] %19
V:3
 x8 | x8 | x8 | x8 |[M:3/4] B,,6 |[M:1/4] x2 |[M:4/4] x8 | x8 | z4 z2 C,2 | [F,A,]6 z2 | x8 | x8 | %12
 x6[K:treble] x2 |[M:3/4] x6 |[M:1/4] x2 |[M:4/4] x8 | x8 | x8 | x8 |] %19
V:4
 x8 | x8 | x8 | x8 |[M:3/4] x6 |[M:1/4] x2 |[M:4/4] x8 | x8 | =E2 z2 E2 E2 | F6 z2 | x8 | x8 | %12
 [Ge]3 [Ge] z F, z A, |[M:3/4] x6 |[M:1/4] x2 |[M:4/4] x8 | x8 | x8 | x8 |] %19

